X:1
T:Star, Beautiful Star
T:Frederick Schilling
T:Star, Beautiful Star
T:Public Domain
T:Public Domain
C:Frederick Schilling
Z:Public Domain
%%score 1 ( 2 3 )
L:1/8
M:6/8
K:Bb
V:1 treble 
V:2 bass 
V:3 bass 
V:1
 F/F/ | FGA (Bc)d | ed^c d2 d | (dd)c GGA | (cB)G F3 | FGA (Bc)d | (eB)c d2 (d/d/) | c=Bc ddc | %8
w: 1.~There’s a|beau- ti- ful star, * a|beau- ti- ful star, The|wea- * ry tra- velers have|fol- * lowed far,|Shin- ing so bright- * ly|all * the way, Till~it *|stood o’er the place where the|
w: 2.~In the|land of the East,~in * the|sha- dows of night, We|saw * the glo- ry of|thy * new light,|Tell- ing us, in * our|dist- * ant home, The *|Ki- ng- Re- deem- er to|
w: 3.~We have|go- ld for tribute * and|gi- fts for prayer, In-|cense * of my- rrh, and|spic- * es rare:|All that we have, * we|hi- * ther bring, To *|lay it with joy at the|
 (BA)G F3 ||"^Refrain" [DF]3 [^CG]3 | [^CG][DF][C=E] [DF]3 | [EF]3 [Ec]3 | %12
w: young * Child lay.||||
w: earth * hath come!|Star, star,|beau- ti- ful star!|Pil- grims|
w: feet~of * the King.||||
 [DF][DB][Ec] [Fd]2 [_Ad] | [Ge]3 [GB]2 [_Gc] | [Fd]3 [DB]2 [^CG] | [DF][^C=E][DF] [Fd]2 [_E=c] | %16
w: ||||
w: wea- ry we are; To|Je- sus, to|Je- sus, We|fol- low thee from a-|
w: ||||
 [DB]3- [DB]2 |] %17
w: |
w: far. *|
w: |
V:2
 z | z [F,B,D][F,B,D] z [F,B,D][F,B,D] | z [G,B,E][G,B,E] z [F,B,D][F,B,D] | %3
 z [B,=E][B,E] z [A,_E][A,E] | z [F,B,D][E,G,^C] [B,,F,D]2 z | z [F,B,D][F,B,D] z [F,B,D][F,B,D] | %6
 z [G,B,E][G,B,E] z [F,B,D][F,B,D] | z [F,A,C][F,A,C] z [=E,B,C][E,B,C] | %8
 z [=E,B,C][E,B,C] [F,,F,A,C]3 || [B,,F,]3 [B,,=E,]3 | [B,,=E,][B,,F,][B,,G,] [B,,F,]3 | %11
 [C,A,]3 [F,A,]3 | [B,,B,][B,,B,][B,,B,] [B,,B,]2 [B,,B,] | [E,B,]3 [E,B,]2 [E,B,] | %14
 [B,,B,]3 [B,,F,]2 [=E,B,] | [F,B,][G,B,][F,B,] [F,A,]2 [F,,F,] | [B,,F,]3- [B,,F,]2 |] %17
V:3
 x | B,,3 B,,3 | B,,3 B,,3 | B,,3 F,,2 x | B,,3 x3 | B,,3 B,,3 | B,,3 B,,3 | C,3 C,3 | C,3 x3 || %9
 x6 | x6 | x6 | x6 | x6 | x6 | x6 | x5 |] %17

